!!!COM: Bach, Johann Sebastian
!!!CDT: 1685/3//-1750/7/28/
!!!OTL@@DE: O Haupt voll Blut und Wunden
!!!OTL@EN:  O sacred head now wounded
!!!OPR: Christmas Oratorio
!!!AGN: 4-Part Chorale
!!!SCT: BH 345
!!!SCT: BWV 248
**harm	**root	**kern	**kern	**kern	**kern
!	!	!bass	!tenor	!alto	!soprno
*	*Iorgan	*Iorgan	*Iorgan	*Iorgan	*Iorgan
*	*	*clefF4	*clefF4	*clefF4	*clefF4
*M4/4	*M4/4	*M4/4	*M4/4	*M4/4	*M4/4
*met(c)	*met(c)	*met(c)	*met(c)	*met(c)	*met(c)
*MM56	*MM56	*MM56	*MM56	*MM56	*MM56
*k[b-e-a-d-g-]	*k[b-e-a-d-g-]	*k[b-e-a-d-g-]	*k[b-e-a-d-g-]	*k[b-e-a-d-g-]	*k[b-e-a-d-g-]
*b-:	*b-:	*b-:	*b-:	*b-:	*b-:
*>[A,A,B]	*>[A,A,B]	*>[A,A,B]	*>[A,A,B]	*>[A,A,B]	*>[A,A,B]
*>A	*>A	*>A	*>A	*>A	*>A
V7	4EE	4F	4A	8f	4f
.	.	.	.	8e-	.
=1	=1	=1	=1	=1	=1
VI	4FF	4G-	4B-	8d-	4b-
.	.	.	.	8e-	.
-VII	4GG	4A-	4c	8e-	4a-
.	.	.	.	8f	.
VI7b	8FF	8B-	8d-	8f	4g-
iio	8BB	8c	8e-	8e-	.
III	4CC	4d-	4A-	8e-	4f
.	.	.	.	8d-	.
=2	=2	=2	=2	=2	=2
iv	2DD	2G-	8B-	4d-	2e-
.	.	.	8A	.	.
.	.	.	4B-	8c	.
.	.	.	.	8B-	.
V	4EE	4F;	4A;	4c;	4f;
V	4EE	4F	4A	4f	4cc
=3	=3	=3	=3	=3	=3
i	4AA	8B-	8B-	4f	4dd-
.	.	8A-	8c	.	.
VI	4FF	8G-	4d-	4b-	4dd-
.	.	8F	.	.	.
ii7D	4BB	8E-	4g-	4b-	8cc
.	.	8C	.	.	16dd-
.	.	.	.	.	16ee-
V7	4EE	4F	8f	4a	4cc
.	.	.	8e-	.	.
=4	=4	=4	=4	=4	=4
i	2.AA	2.BB-;	2.d-;	2.f;	2.b-;
=:|!	=:|!	=:|!	=:|!	=:|!	=:|!
*>B	*>B	*>B	*>B	*>B	*>B
i	4AA	4B-	4f	8b-	4dd-
.	.	.	.	8a-	.
=5	=5	=5	=5	=5	=5
iiob	4BB	4E-	8e-	4g-	8cc
.	.	.	8d-	.	8b-
v	4EE	4F	4c	8f	4a-
.	.	.	.	8e-	.
VI	4FF	8G-	8B-	4d-	4b-
.	.	8F	8A-	.	.
iiob	4BB	4E-	8G-	4g-	4cc
.	.	.	8A-	.	.
=6	=6	=6	=6	=6	=6
VIb	4FF	8BB-	4B-	4g-	2dd-
.	.	8C	.	.	.
III	4CC	4D-	8A-	8f	.
.	.	.	8G-	8e-	.
III	4CC	4D-;	4A-;	4f;	4dd-;
III	4CC	4D-	4d-	4f	4a-
!!linebreak: 2
=7	=7	=7	=7	=7	=7
VI	4FF	8G-	8d-	4g-	4b-
.	.	8F	8e-	.	.
V7b/IV	4AA	8E-	4f	8c-	4a-
.	.	8D	.	8B-	.
iv	8DD	4E-	8e-	8B-	8g-
vii/IV	8CC#	.	8d	8A-	8f
iv	8DD	4E-	8e-	8B-	4g-
vii7Dc	8GG#	.	8A	8e-	.
=8	=8	=8	=8	=8	=8
I	2.AA	2.BB-;	2.B-;	2.d;	2.f;
V7b/-VII	4DD	4G	4B-	4e-	4dd-
=9	=9	=9	=9	=9	=9
-VII	4GG	4A-	8A-	4e-	8cc
.	.	.	8B-	.	8dd-
-VII	4GG	8A-	4c	4a-	4ee-
.	.	8G	.	.	.
IIIb	4CC	4.F	8d-	8a-	4dd-
.	.	.	8e-	8g	.
V	4EE	.	4f	4a-	4cc
.	.	8E-	.	.	.
=10	=10	=10	=10	=10	=10
i7	4AA	8D-	4f	4a-	2b-
.	.	8BB-	.	.	.
V/-VII	4DD	4E-	4e-	4g	.
-VII	4GG	4AA-;	4e-;	4a-;	4cc;
III	4CC	8D-	4d-	4a-	4f
.	.	8C	.	.	.
=11	=11	=11	=11	=11	=11
VIb	8FF	8BB-	8d-	8d-	4g-
iio	8BB	8C	8c	8e-	.
ib	4AA	[4D-	8c	4d-	4f
.	.	.	8B-	.	.
ii7D	4BB	8D-]	4B-	4G-	4e-
.	.	[8C	.	.	.
-VIIb	8GG	8C]	8A-	4e-	8a-
ivc	8DD	8BB-	8B-	.	8g-
=12	=12	=12	=12	=12	=12
V7b	4EE	4AA	4c	4e-	2.f;
i	4AA	4BB-	4B-	4d-	.
V	4EE	4F;	4A;	4c;	.
==	==	==	==	==	==
*-	*-	*-	*-	*-	*-
!!chor2scor: -l 2 -s 0.6 -o %b.pmx
!!!YEC: Copyright 2003 by Craig Stuart Sapp
!!!license: GNU General Public License (http://www.gnu.org/copyleft/gpl.html)
!!!SMA: 371 Bach Chorales, edited by Ludwig Erk, C.F. Peters
!!!PDT: 1850, 1865
!!!ONB: Harmony and Root analysis done manually by Craig Sapp
